data/styles/clear/style-night/symbols/charging-station-m.svg

<?xml version="1.0" encoding="UTF-8"?>
<svg width="16px" height="16px" viewBox="0 0 16 16" version="1.1" xmlns="http://www.w3.org/2000/svg" xmlns:xlink="http://www.w3.org/1999/xlink">
    <title>charging-station-m</title>
    <g id="Page-2:-Night" stroke="none" stroke-width="1" fill="none" fill-rule="evenodd" opacity="0.6">
        <g id="charging-station-m" fill-rule="nonzero">
            <circle id="Oval" fill="#FFFFFF" cx="8" cy="8" r="8"></circle>
            <circle id="Oval" fill="#717065" cx="8" cy="8" r="7.33333333"></circle>
            <path d="M11.6743963,5.87968905 L11.67884,5.87524534 L10.2612967,4.45770206 C10.1324292,4.32883449 9.91913112,4.32883449 9.79026355,4.45770206 C9.66139597,4.58656963 9.66139597,4.79986768 9.79026355,4.92873525 L10.4923696,5.63084133 C10.0257801,5.8085897 9.71027678,6.28406661 9.79026355,6.83508656 C9.86136289,7.32389459 10.2790716,7.71938472 10.7678796,7.77270924 C10.9767339,7.79492778 11.158926,7.75937811 11.3322307,7.68383505 L11.3322307,10.8877495 C11.3322307,11.1321535 11.1322638,11.3321204 10.8878598,11.3321204 C10.6434557,11.3321204 10.4434888,11.1321535 10.4434888,10.8877495 L10.4434888,8.88808028 C10.4434888,8.39927225 10.043555,7.99933841 9.55474695,7.99933841 L9.11037601,7.99933841 L9.11037601,4.88874187 C9.11037601,4.39993384 8.71044217,4 8.22163415,4 L5.55540854,4 C5.06660051,4 4.66666667,4.39993384 4.66666667,4.88874187 L4.66666667,11.5543059 C4.66666667,11.7987099 4.86663359,11.9986768 5.1110376,11.9986768 L8.66600508,11.9986768 C8.91040909,11.9986768 9.11037601,11.7987099 9.11037601,11.5543059 L9.11037601,8.66589482 L9.77693242,8.66589482 L9.77693242,10.8255376 C9.77693242,11.4076635 10.1946411,11.9364649 10.7723233,11.9942331 C11.4388797,12.0608888 11.9987871,11.5409748 11.9987871,10.8877495 L11.9987871,6.66622561 C11.9987871,6.35960966 11.8743632,6.07965598 11.6743963,5.87968905 Z M10.8878598,7.11059654 C10.6434557,7.11059654 10.4434888,6.91062962 10.4434888,6.66622561 C10.4434888,6.42182159 10.6434557,6.22185467 10.8878598,6.22185467 C11.1322638,6.22185467 11.3322307,6.42182159 11.3322307,6.66622561 C11.3322307,6.91062962 11.1322638,7.11059654 10.8878598,7.11059654 Z M6.44415041,9.83014666 L6.44415041,8.66589482 L5.92423641,8.66589482 C5.75537546,8.66589482 5.64872643,8.48814644 5.7287132,8.33706032 L6.9151836,6.11520565 C7.02183262,5.91523873 7.33289228,5.99078179 7.33289228,6.22185467 L7.33289228,7.55496748 L7.83947514,7.55496748 C8.0083361,7.55496748 8.11498512,7.73715956 8.03055464,7.88824568 L6.85741538,9.9412394 C6.74632264,10.1367626 6.44415041,10.0567758 6.44415041,9.83014666 L6.44415041,9.83014666 Z" id="Shape" fill="#FFFFFF"></path>
        </g>
    </g>
</svg>

<?xml version="1.0" encoding="UTF-8" standalone="no"?>
<svg
   xmlns:svg="http://www.w3.org/2000/svg"
   xmlns="http://www.w3.org/2000/svg"
   xmlns:sodipodi="http://sodipodi.sourceforge.net/DTD/sodipodi-0.dtd"
   xmlns:inkscape="http://www.inkscape.org/namespaces/inkscape"
   inkscape:version="1.1-dev (1:0.92.0+devel+202005110039+9ce7266)"
   sodipodi:docname="charging-station-m.svg"
   id="svg2544"
   version="1.1"
   viewBox="0 0 24 24"
   height="24"
   width="24">
  <defs
     id="defs2548" />
  <title
     id="title2536">charging-station-m</title>
  <g
     transform="scale(1.5)"
     opacity="0.6"
     fill-rule="evenodd"
     fill="none"
     stroke-width="1"
     stroke="none"
     id="Page-2:-Night">
    <g
       fill-rule="nonzero"
       id="charging-station-m">
      <circle
         r="8"
         cy="8"
         cx="8"
         fill="#ffffff"
         id="Oval" />
      <circle
         r="7.3333335"
         cy="8"
         cx="8"
         fill="#717065"
         id="circle2539" />
      <path
         fill="#ffffff"
         id="Shape"
         d="m 11.674396,5.879689 0.0044,-0.00444 -1.417543,-1.4175432 c -0.128868,-0.1288676 -0.3421659,-0.1288676 -0.4710334,0 -0.1288676,0.1288675 -0.1288676,0.3421656 0,0.4710331 L 10.49237,5.6308413 c -0.46659,0.1777484 -0.7820932,0.6532253 -0.7021064,1.2042453 0.071099,0.488808 0.4888084,0.8842981 0.9776164,0.9376226 0.208854,0.022219 0.391046,-0.013331 0.564351,-0.088874 V 10.88775 c 0,0.244403 -0.199967,0.44437 -0.444371,0.44437 -0.244404,0 -0.444371,-0.199967 -0.444371,-0.44437 V 8.8880803 c 0,-0.4888081 -0.399934,-0.8887419 -0.888742,-0.8887419 H 9.110376 V 4.8887419 C 9.110376,4.3999338 8.7104422,4 8.2216342,4 H 5.5554085 C 5.0666005,4 4.6666667,4.3999338 4.6666667,4.8887419 v 6.6655641 c 0,0.244404 0.1999669,0.444371 0.4443709,0.444371 h 3.5549675 c 0.244404,0 0.4443709,-0.199967 0.4443709,-0.444371 V 8.6658948 h 0.6665564 v 2.1596432 c 0,0.582126 0.4177086,1.110927 0.9953906,1.168695 0.666557,0.06666 1.226464,-0.453258 1.226464,-1.106483 V 6.6662256 c 0,-0.3066159 -0.124424,-0.5865696 -0.324391,-0.7865366 z M 10.88786,7.1105965 c -0.244404,0 -0.444371,-0.1999669 -0.444371,-0.4443709 0,-0.244404 0.199967,-0.4443709 0.444371,-0.4443709 0.244404,0 0.444371,0.1999669 0.444371,0.4443709 0,0.244404 -0.199967,0.4443709 -0.444371,0.4443709 z M 6.4441504,9.8301467 V 8.6658948 h -0.519914 c -0.1688609,0 -0.27551,-0.1777484 -0.1955232,-0.3288345 L 6.9151836,6.1152056 C 7.0218326,5.9152387 7.3328923,5.9907818 7.3328923,6.2218547 v 1.3331128 h 0.5065828 c 0.168861,0 0.27551,0.1821921 0.1910795,0.3332782 L 6.8574154,9.9412394 C 6.7463226,10.136763 6.4441504,10.056776 6.4441504,9.8301467 Z" />
    </g>
  </g>
</svg>
